assets/social/instagram.svg

<svg id="Layer_1" data-name="Layer 1" xmlns="http://www.w3.org/2000/svg" viewBox="0 0 1000 1000"><path d="M295.42,6c-53.2,2.51-89.53,11-121.29,23.48-32.87,12.81-60.73,30-88.45,57.82S40.89,143,28.17,175.92c-12.31,31.83-20.65,68.19-23,121.42S2.3,367.68,2.56,503.46,3.42,656.26,6,709.6c2.54,53.19,11,89.51,23.48,121.28,12.83,32.87,30,60.72,57.83,88.45S143,964.09,176,976.83c31.8,12.29,68.17,20.67,121.39,23s70.35,2.87,206.09,2.61,152.83-.86,206.16-3.39S799.1,988,830.88,975.58c32.87-12.86,60.74-30,88.45-57.84S964.1,862,976.81,829.06c12.32-31.8,20.69-68.17,23-121.35,2.33-53.37,2.88-70.41,2.62-206.17s-.87-152.78-3.4-206.1-11-89.53-23.47-121.32c-12.85-32.87-30-60.7-57.82-88.45S862,40.87,829.07,28.19c-31.82-12.31-68.17-20.7-121.39-23S637.33,2.3,501.54,2.56,348.75,3.4,295.42,6m5.84,903.88c-48.75-2.12-75.22-10.22-92.86-17-23.36-9-40-19.88-57.58-37.29s-28.38-34.11-37.5-57.42c-6.85-17.64-15.1-44.08-17.38-92.83-2.48-52.69-3-68.51-3.29-202s.22-149.29,2.53-202c2.08-48.71,10.23-75.21,17-92.84,9-23.39,19.84-40,37.29-57.57s34.1-28.39,57.43-37.51c17.62-6.88,44.06-15.06,92.79-17.38,52.73-2.5,68.53-3,202-3.29s149.31.21,202.06,2.53c48.71,2.12,75.22,10.19,92.83,17,23.37,9,40,19.81,57.57,37.29s28.4,34.07,37.52,57.45c6.89,17.57,15.07,44,17.37,92.76,2.51,52.73,3.08,68.54,3.32,202s-.23,149.31-2.54,202c-2.13,48.75-10.21,75.23-17,92.89-9,23.35-19.85,40-37.31,57.56s-34.09,28.38-57.43,37.5c-17.6,6.87-44.07,15.07-92.76,17.39-52.73,2.48-68.53,3-202.05,3.29s-149.27-.25-202-2.53m407.6-674.61a60,60,0,1,0,59.88-60.1,60,60,0,0,0-59.88,60.1M245.77,503c.28,141.8,115.44,256.49,257.21,256.22S759.52,643.8,759.25,502,643.79,245.48,502,245.76,245.5,361.22,245.77,503m90.06-.18a166.67,166.67,0,1,1,167,166.34,166.65,166.65,0,0,1-167-166.34" transform="translate(-2.5 -2.5)"/></svg>

<?xml version="1.0" encoding="UTF-8" standalone="no"?>
<!DOCTYPE svg PUBLIC "-//W3C//DTD SVG 1.1//EN" "http://www.w3.org/Graphics/SVG/1.1/DTD/svg11.dtd">
<svg width="100%" height="100%" viewBox="0 0 1000 1000" version="1.1" xmlns="http://www.w3.org/2000/svg" xmlns:xlink="http://www.w3.org/1999/xlink" xml:space="preserve" xmlns:serif="http://www.serif.com/" style="fill-rule:evenodd;clip-rule:evenodd;stroke-linejoin:round;stroke-miterlimit:2;">
    <g transform="matrix(1,0,0,1,-2.5,-2.5)">
        <path d="M295.42,6C242.22,8.51 205.89,17 174.13,29.48C141.26,42.29 113.4,59.48 85.68,87.3C57.96,115.12 40.89,143 28.17,175.92C15.86,207.75 7.52,244.11 5.17,297.34C2.82,350.57 2.3,367.68 2.56,503.46C2.82,639.24 3.42,656.26 6,709.6C8.54,762.79 17,799.11 29.48,830.88C42.31,863.75 59.48,891.6 87.31,919.33C115.14,947.06 143,964.09 176,976.83C207.8,989.12 244.17,997.5 297.39,999.83C350.61,1002.16 367.74,1002.7 503.48,1002.44C639.22,1002.18 656.31,1001.58 709.64,999.05C762.97,996.52 799.1,988 830.88,975.58C863.75,962.72 891.62,945.58 919.33,917.74C947.04,889.9 964.1,862 976.81,829.06C989.13,797.26 997.5,760.89 999.81,707.71C1002.14,654.34 1002.69,637.3 1002.43,501.54C1002.17,365.78 1001.56,348.76 999.03,295.44C996.5,242.12 988.03,205.91 975.56,174.12C962.71,141.25 945.56,113.42 917.74,85.67C889.92,57.92 862,40.87 829.07,28.19C797.25,15.88 760.9,7.49 707.68,5.19C654.46,2.89 637.33,2.3 501.54,2.56C365.75,2.82 348.75,3.4 295.42,6M301.26,909.88C252.51,907.76 226.04,899.66 208.4,892.88C185.04,883.88 168.4,873 150.82,855.59C133.24,838.18 122.44,821.48 113.32,798.17C106.47,780.53 98.22,754.09 95.94,705.34C93.46,652.65 92.94,636.83 92.65,503.34C92.36,369.85 92.87,354.05 95.18,301.34C97.26,252.63 105.41,226.13 112.18,208.5C121.18,185.11 132.02,168.5 149.47,150.93C166.92,133.36 183.57,122.54 206.9,113.42C224.52,106.54 250.96,98.36 299.69,96.04C352.42,93.54 368.22,93.04 501.69,92.75C635.16,92.46 651,92.96 703.75,95.28C752.46,97.4 778.97,105.47 796.58,112.28C819.95,121.28 836.58,132.09 854.15,149.57C871.72,167.05 882.55,183.64 891.67,207.02C898.56,224.59 906.74,251.02 909.04,299.78C911.55,352.51 912.12,368.32 912.36,501.78C912.6,635.24 912.13,651.09 909.82,703.78C907.69,752.53 899.61,779.01 892.82,796.67C883.82,820.02 872.97,836.67 855.51,854.23C838.05,871.79 821.42,882.61 798.08,891.73C780.48,898.6 754.01,906.8 705.32,909.12C652.59,911.6 636.79,912.12 503.27,912.41C369.75,912.7 354,912.16 301.27,909.88M708.87,235.27C708.925,268.147 735.993,295.17 768.87,295.17C801.785,295.17 828.87,268.085 828.87,235.17C828.87,202.255 801.785,175.17 768.87,175.17C768.83,175.17 768.79,175.17 768.75,175.17C735.843,175.236 708.815,202.363 708.87,235.27M245.77,503C246.05,644.8 361.21,759.49 502.98,759.22C644.75,758.95 759.52,643.8 759.25,502C758.98,360.2 643.79,245.48 502,245.76C360.21,246.04 245.5,361.22 245.77,503M335.83,502.82C335.83,502.71 335.83,502.6 335.83,502.49C335.83,411.058 411.067,335.82 502.5,335.82C593.932,335.82 669.17,411.058 669.17,502.49C669.17,593.798 594.137,668.979 502.83,669.16C502.713,669.16 502.596,669.16 502.48,669.16C411.175,669.16 336,594.124 335.83,502.82" style="fill:rgb(230,230,230);fill-rule:nonzero;"/>
    </g>
</svg>
